public/icons/hammer_icon.svg

<svg width="330" height="330" viewBox="0 0 330 330" fill="none" xmlns="http://www.w3.org/2000/svg">
<path d="M145.044 27.1289C165.319 26.1636 186.294 30.4931 201.681 44.4553C208.738 50.8595 245.036 86.0167 247.75 91.6171C249.25 94.7126 248.662 100.112 248.818 103.524C251.623 106.98 254.282 111.059 258.675 112.509C261.028 112.685 262.485 111.519 264.441 110.412C267.422 108.725 271.283 107.363 274.701 108.528C278.658 109.875 288.708 120.576 290.342 124.552C291.267 126.8 291.2 129.016 290.246 131.243C289.557 132.853 288.337 134.364 287.16 135.638C282.937 140.208 277.94 144.211 273.568 148.678C266.504 155.897 259.726 164.061 252.103 170.647C250.51 172.023 248.74 173.289 246.733 173.983C244.704 174.684 242.35 174.628 240.451 173.576C236.728 171.512 224.231 158.676 223.291 154.586C222.142 149.591 227.966 147.74 229.87 144.095C230.355 143.168 230.479 142.085 230.186 141.094C228.944 136.891 222.216 132.574 218.613 130.445C212.09 131.239 205.462 133.004 199.958 136.727C187.925 144.869 176.083 160.703 166.25 171.754L120.258 223.49L95.3016 251.704C90.3588 257.277 85.5181 263.417 79.9523 268.376C77.5098 270.552 74.6259 272.667 71.4178 273.512C67.4261 274.565 63.4688 273.959 59.9117 271.901C53.7349 268.328 41.1351 254.782 39.4019 247.973C38.3608 243.883 39.4267 240.82 41.6267 237.334C47.7112 227.691 62.6011 214.626 70.9254 206.245L142.72 134.647C149.883 127.409 161.385 117.819 166.302 109.103C171.681 99.5676 174.96 87.301 171.829 76.5522C169.868 69.8252 165.735 64.1116 160.473 59.5561C138.4 40.4462 111.704 54.7957 104.263 49.6217C103.266 48.9282 102.881 47.7385 102.799 46.5833C102.664 44.6842 103.336 43.171 104.554 41.7426C112.16 32.8193 133.795 28.2037 145.044 27.1289Z" fill="black"/>
<path d="M165.774 123.044C169.997 124.267 180.042 136.459 183.604 140.364C157.154 168.575 131.834 198.068 106.196 227.027C97.1534 237.241 83.0201 255.421 73.2598 263.535C71.1491 265.289 68.9093 265.515 66.2822 265.813C64.5685 265.013 63.1003 264.247 61.6674 262.978C56.4566 258.366 48.073 250.978 47.6182 243.759C48.2367 241.202 50.2618 239.095 51.9665 237.171C64.1902 223.373 78.1944 210.602 91.2423 197.561L165.774 123.044Z" fill="#FED100"/>
<path d="M234.967 184.671C239.42 184.661 244.428 184.662 248.587 186.469C250.263 187.198 251.265 188.122 251.962 189.81C252.967 198.062 238.474 207.538 234.125 213.898L233.737 214.476C234.005 215.151 234.285 215.822 234.581 216.485C238.261 224.753 243.489 230.298 251.995 233.564C257.25 229.511 261.564 224.351 266.311 219.735C268.519 217.588 271.493 214.512 274.848 214.757C276.502 214.878 277.878 215.871 278.865 217.151C282.153 221.415 282.078 228.628 281.517 233.686C280.462 243.215 275.643 251.927 268.131 257.883C258.607 265.383 248.617 265.385 237.2 264.056L212.526 288.633C203.513 297.747 193.509 311.383 179.594 311.493C172.111 311.552 164.934 308.109 159.748 302.814C154.097 297.044 150.585 289.033 150.736 280.906C150.812 276.826 151.92 272.546 154.142 269.094C158.942 261.635 167.645 255.166 174.126 249.085C183.684 240.1 193.183 231.052 202.623 221.944C202.49 212.789 203.444 204.853 209.347 197.439C215.832 189.294 224.929 185.859 234.967 184.671Z" fill="black"/>
<path d="M233.345 193.212C236.168 192.93 239.185 193.163 242.028 193.183C237.511 197.73 225.738 207.267 225.602 213.81C225.461 220.561 230.744 227.844 235.241 232.421C239.255 236.505 245.917 241.821 252.034 241.596C258.985 241.341 268.057 229.691 272.857 224.834C273.594 229.879 273.327 234.368 271.743 239.254C263.94 263.315 240.359 253.244 233.835 256.924C233.648 257.03 233.47 257.151 233.286 257.263C224.616 262.571 216.794 272.465 209.669 279.698C202.353 286.727 192.929 300.08 183.022 302.727C178.598 303.909 173.882 302.97 170.002 300.619C164.628 297.36 161.047 292.089 159.666 285.992C158.824 282.271 158.871 278.02 160.639 274.556C163.201 269.539 168.755 265.24 172.843 261.447C181.564 253.355 202.51 235.598 208.411 227.118C213.179 220.267 210.232 210.808 214.976 203.483C218.95 197.347 226.527 194.637 233.345 193.212Z" fill="#FED100"/>
</svg>

<svg xmlns="http://www.w3.org/2000/svg" width="330" height="330" fill="none" viewBox="0 0 330 330"><path fill="#000" d="M145.044 27.129c20.275-.965 41.25 3.364 56.637 17.326 7.057 6.404 43.355 41.562 46.069 47.162 1.5 3.096.912 8.495 1.068 11.907 2.805 3.456 5.464 7.535 9.857 8.985 2.353.176 3.81-.99 5.766-2.097 2.981-1.687 6.842-3.049 10.26-1.884 3.957 1.347 14.007 12.048 15.641 16.024.925 2.248.858 4.464-.096 6.691-.689 1.61-1.909 3.121-3.086 4.395-4.223 4.57-9.22 8.573-13.592 13.04-7.064 7.219-13.842 15.383-21.465 21.969-1.593 1.376-3.363 2.642-5.37 3.336-2.029.701-4.383.645-6.282-.407-3.723-2.064-16.22-14.9-17.16-18.99-1.149-4.995 4.675-6.846 6.579-10.491.485-.927.609-2.01.316-3.001-1.242-4.203-7.97-8.52-11.573-10.649-6.523.794-13.151 2.559-18.655 6.282-12.033 8.142-23.875 23.976-33.708 35.027l-45.992 51.736-24.956 28.214c-4.943 5.573-9.784 11.713-15.35 16.672-2.442 2.176-5.326 4.291-8.534 5.136-3.992 1.053-7.95.447-11.506-1.611-6.177-3.573-18.777-17.119-20.51-23.928-1.041-4.09.025-7.153 2.225-10.639 6.084-9.643 20.974-22.708 29.298-31.089l71.795-71.598c7.163-7.238 18.665-16.828 23.582-25.544 5.379-9.535 8.658-21.802 5.527-32.55-1.961-6.728-6.094-12.441-11.356-16.997-22.073-19.11-48.769-4.76-56.21-9.934-.997-.694-1.382-1.883-1.464-3.039-.135-1.899.537-3.412 1.755-4.84 7.606-8.924 29.241-13.54 40.49-14.614"/><path fill="#fed100" d="M165.774 123.044c4.223 1.223 14.268 13.415 17.83 17.32-26.45 28.211-51.77 57.704-77.408 86.663-9.043 10.214-23.176 28.394-32.936 36.508-2.11 1.754-4.35 1.98-6.978 2.278-1.713-.8-3.182-1.566-4.615-2.835-5.21-4.612-13.594-12-14.049-19.219.619-2.557 2.644-4.664 4.349-6.588 12.223-13.798 26.227-26.569 39.275-39.61z"/><path fill="#000" d="M234.967 184.671c4.453-.01 9.461-.009 13.62 1.798 1.676.729 2.678 1.653 3.375 3.341 1.005 8.252-13.488 17.728-17.837 24.088l-.388.578q.401 1.013.844 2.009c3.68 8.268 8.908 13.813 17.414 17.079 5.255-4.053 9.569-9.213 14.316-13.829 2.208-2.147 5.182-5.223 8.537-4.978 1.654.121 3.03 1.114 4.017 2.394 3.288 4.264 3.213 11.477 2.652 16.535a35.92 35.92 0 0 1-13.386 24.197c-9.524 7.5-19.514 7.502-30.931 6.173l-24.674 24.577c-9.013 9.114-19.017 22.75-32.932 22.86-7.483.059-14.66-3.384-19.846-8.679-5.651-5.77-9.163-13.781-9.012-21.908.076-4.08 1.184-8.36 3.406-11.812 4.8-7.459 13.503-13.928 19.984-20.009a3029 3029 0 0 0 28.497-27.141c-.133-9.155.821-17.091 6.724-24.505 6.485-8.145 15.582-11.58 25.62-12.768"/><path fill="#fed100" d="M233.345 193.212c2.823-.282 5.84-.049 8.683-.029-4.517 4.547-16.29 14.084-16.426 20.627-.141 6.751 5.142 14.034 9.639 18.611 4.014 4.084 10.676 9.4 16.793 9.175 6.951-.255 16.023-11.905 20.823-16.762.737 5.045.47 9.534-1.114 14.42-7.803 24.061-31.384 13.99-37.908 17.67-.187.106-.365.227-.549.339-8.67 5.308-16.492 15.202-23.617 22.435-7.316 7.029-16.74 20.382-26.647 23.029-4.424 1.182-9.14.243-13.02-2.108-5.374-3.259-8.955-8.53-10.336-14.627-.842-3.721-.795-7.972.973-11.436 2.562-5.017 8.116-9.316 12.204-13.109 8.721-8.092 29.667-25.849 35.568-34.329 4.768-6.851 1.821-16.31 6.565-23.635 3.974-6.136 11.551-8.846 18.369-10.271"/></svg>
